X:5288
T:Proudlocks's Variation
O:england
S:Reading
M:4/4
L:1/8
R:Hornpipe
K:G
P:A
D2|(3"G"GED(3GAB F3/2"D7"AFD(3ABA|(3"G"GBd(3gfg F3/2"C"agf(3edc|
(3"G"Bcd(3BAG F3/2"D7"ABc(3AGF|(3"G"GFG(3AGF F3/2"D7"GFE(3DEF|
(3"G"GED(3GAB F3/2"D7"AFD(3ABA|(3"G"GBd(3gfg F3/2"C"agf(3edc|
(3"G"Bcd(3BAG F3/2"D7"ABc(3AGF|(3"G"GFE(3DEF F3/2GDBG2:|
P:B
Bc|(3"G"d^cd(3edc F3/2"Em"Bcd(3GAB|(3"Am"cBc(3dcB F3/2"D7"AGF(3DBc|
(3"G"d^cd(3edc F3/2"Em"Bcd(3GAB|(3"A7"A^ce(3a_ag F3/2"D7"fed(3cBA|
(3"G"GED(3GAB F3/2"D7"AFD(3ABA|(3"G"GBd(3gfg F3/2"C"agf(3edc|
(3"G"Bcd(3BAG F3/2"D7"ABc(3AGF|(3"G"GFE(3DEF F3/2GDBG2:|
